X:3015
T:Polska efter Perbjörs Erik
R:Springlek
O:Ytternäs, Lima sn, Dalarna
S:efter Perbjörs Erik Persson, "[[Personer/Fjös Erik]]" (1833-1921)
B:EÖ nr 376
Z:Nils L
M:3/4
L:1/8
N:Se även [[Musik/2558|+]], [[Musik/1195|+]], och [[Musik/2345|+]]
K:D
D>(F A>)(d f)a | a>(f g>)(e f)a | DF Ad fa | af/a/ g2 f2 ::
fe/f/ gf ed | cB AG FE | DE FG AA | Ac e2 d2 :|
(:musicend:)
(:music:)
